X:1
T:Schottisch van Zaventem
C:Traditioneel
O:Vlaanderen
S:Kopie van partituur door Wilfrid Moonen
R:Schottisch
Z:Bert Van Vreckem <bert.vanvreckem@gmail.com> 2005-09-23
M:2/4
L:1/8
Q:1/4=82
K:Am
"Am"z e/>f/ e/>d/c/>d/|ec Ac|"E7"B/Bf/ eB|"Am"c/cB/ AE|\
"Am"z e/>f/ e/>d/c/>d/|ec Ac|"E7"B/Bf/ e^G|"Am"A2 a2 !fine!:|
"G"g/ga/ g/>f/e/>d|"C"c/cd/ ec|"E7"e/ef/ e/>d/c/>B/|"Am"A/AB/ cA|\
"G"d/de/ fa|"C"a/ge/ ce|"G"g/fd/ Bf|"C"e/ca/ g2|
"G"g/ga/ g/>f/e/>d|"C"c/cd/ ec|"E7"e/ef/ e/>d/c/>B/|"Am"A/AB/ cA|\
A/cd/ ea|e2 zc/d/|ef/e/ "F"ef/e/|"E7"e4!D.C.!|]
